!!!SOCIAL_FUNCTION:	bird dance songs
!!!PDT:	1956
!!!OTL: No_83_Bird_Dance_Song_(f).krn
!!!LANG: Non-Tone
!!!LING_GROUP: Muskogean
!!!REG: Florida
**kern
*staff1
=1-
*clefF4
*k[f#c#g#d#]
*M2/4
16B\LK
8.B\J
4B\
=2
8B\L
8A\J
(8G#\L
8E\J)
=3
16B\LK
8.B\J
(8B\L
8A\J)
=4
8G#\L
8E\J
4E\
=5!|:
8G#\L
8G#\J
(8G#\L
8F#\J)
=6
8G#\L
8E\J
4E\
=7
8G#\L
8E\J
4E\
=8
8G#\L
8E\J
4E\
=9
8.r
16C#/
12C#/L
12C#/
12C#/J
=10
8G#\L
8E\J
4E\
=11
8.r
16C#/
12C#/L
12C#/
12C#/J
=12
8G#\L
8E\J
4E\
==:|!
*-
